X:7364
T:The St.Kilda Wedding
O:england
C:Trad
R:Reel
M:C
K:D
L:1/8
DDDD DFAF | E2FD B,2 A,B, | DDDD DFAF |1 B2 BA BABd :|2 B2 dc BABc |
|: dcde dAAd | Bcdc B2 AG | FABc dcBd |1 AdFd E2 D2 :|2 AdFd E2 DB,| D2
||


